packages/foundations/assets/icons/functional/images/transportation/pedestrian_28_inverted.svg

<svg width="28" height="28" viewBox="0 0 28 28" fill="none" xmlns="http://www.w3.org/2000/svg">
<g clip-path="url(#clip0_2214_6740)">
<path fill-rule="evenodd" clip-rule="evenodd" d="M14.6462 9.12055C14.4139 11.3749 14.1797 13.6289 13.9436 15.8824L17.125 19.0705C17.1956 19.1413 17.2882 19.3171 17.3192 19.412C17.8132 21.3385 18.3053 23.2665 18.7956 25.1962C18.8972 25.5942 18.6569 25.9992 18.2589 26.1008C17.8915 26.1946 17.4958 25.9905 17.3543 25.5641C16.8773 23.7029 16.4019 21.8404 15.9281 19.9765L12.7884 16.831C12.5687 16.6108 12.4101 16.2626 12.4495 15.8745C12.6386 14.0301 12.8301 12.1862 13.0239 10.3428L10.3482 11.7402L9.92982 14.0917C9.86332 14.465 9.44043 14.76 9.06715 14.6935C8.69386 14.627 8.39605 14.2623 8.46539 13.8308C8.62461 12.9264 8.7856 12.0229 8.94836 11.1201C8.983 10.9256 9.15702 10.6746 9.3363 10.5912C10.7445 9.85349 12.1532 9.1179 13.5622 8.38447C14.0586 8.12527 14.6911 8.49543 14.6462 9.12055ZM12.1895 18.3349C12.5358 18.4893 12.7249 18.8834 12.5658 19.3171C11.6208 21.4408 10.6744 23.5628 9.72675 25.6831C9.55945 26.0582 9.1197 26.2267 8.74456 26.0594C8.39827 25.905 8.19193 25.4698 8.36823 25.0772C9.31327 22.9535 10.2596 20.8315 11.2073 18.7112C11.3746 18.3361 11.8143 18.1676 12.1895 18.3349ZM16.6607 10.6746C16.9171 10.9499 17.1716 11.2263 17.4243 11.5039L19.2621 12.4366C20.18 12.902 19.4917 14.1478 18.5894 13.7633C17.9366 13.4343 17.285 13.1039 16.6344 12.7719C16.5817 12.7452 16.4536 12.6446 16.4239 12.6126C16.1368 12.3035 15.8511 11.9935 15.5668 11.6826C15.2885 11.3805 15.3077 10.91 15.6098 10.6316C15.8867 10.3765 16.3299 10.3527 16.6607 10.6746ZM14.3696 1.87598C15.7436 1.87598 16.8575 2.98987 16.8575 4.36394C16.8575 5.738 15.7436 6.8519 14.3696 6.8519C12.9955 6.8519 11.8816 5.738 11.8816 4.36394C11.8816 2.98987 12.9955 1.87598 14.3696 1.87598ZM14.3696 3.36348C13.817 3.36348 13.3691 3.8114 13.3691 4.36394C13.3691 4.91648 13.817 5.3644 14.3696 5.3644C14.9221 5.3644 15.37 4.91648 15.37 4.36394C15.37 3.8114 14.9221 3.36348 14.3696 3.36348Z" fill="#1A1C1F"/>
</g>
<defs>
<clipPath id="clip0_2214_6740">
<rect width="28" height="28" fill="white"/>
</clipPath>
</defs>
</svg>

<svg xmlns="http://www.w3.org/2000/svg" width="28" height="28" fill="none"><g clip-path="url(#a)"><path fill="#1A1C1F" fill-rule="evenodd" d="M14.646 9.12q-.348 3.382-.702 6.762l3.181 3.188c.07.071.163.247.194.342q.74 2.89 1.477 5.784a.744.744 0 0 1-.537.905c-.367.094-.763-.11-.905-.537a2942 2942 0 0 1-1.426-5.587l-3.14-3.146a1.2 1.2 0 0 1-.338-.957q.283-2.766.574-5.531l-2.676 1.397-.418 2.352c-.067.373-.49.668-.863.601a.75.75 0 0 1-.602-.862q.24-1.357.483-2.71c.035-.195.209-.446.388-.53q2.113-1.107 4.226-2.207a.747.747 0 0 1 1.084.737m-2.456 9.215c.346.154.535.548.376.982q-1.418 3.186-2.84 6.366a.744.744 0 0 1-.981.376.75.75 0 0 1-.377-.982q1.418-3.186 2.84-6.366a.744.744 0 0 1 .982-.376m4.47-7.66q.386.412.764.829l1.838.933c.918.465.23 1.71-.673 1.326q-.978-.494-1.955-.991a1.3 1.3 0 0 1-.21-.16q-.43-.463-.857-.93a.744.744 0 0 1 .043-1.05c.277-.255.72-.28 1.05.043m-2.29-8.799a2.488 2.488 0 1 1 0 4.976 2.488 2.488 0 0 1 0-4.976m0 1.487a1 1 0 1 0 0 2.001 1 1 0 0 0 0-2" clip-rule="evenodd"/></g><defs><clipPath id="a"><path fill="#fff" d="M0 0h28v28H0z"/></clipPath></defs></svg>
